X:338
T:New Viola, The
M:C|
C:© Paul Gitlitz, 2012
K:C
G,B,|:"C"C2G2E2C2|"G"B,2F2D2B,2|"C"C2G2E2C2|"F"FEDC "G"B,DG,B,|!
"C"C2G2E2C2|"G"B,2F2D2B,2|"Bm"^FGFG "G"=FDB,G,|1"C"C2E2C2 G,B,:|2"C"CG,E,G, C,G,E,C,|!
|:"Dm"D,F,A,C "G"B,2G,2|"G"B,DFA "C"G2E2|"C"^FGcA "G"GEDB,|"C"CEDC "G"B,A,G,F,|!
"Dm"D,F,A,C "G"B,2G,2|"G"B,DFA "C"G2E2|"Bm"^FGFG "C"cAGE|"G"DCB,D "C"C4:|
